X:409
T: ALS DIE GROSSE STADT BELGARAD
N: E0336
O: Europa, Mitteleuropa, Deutschland, Franken; Oesterreich
R: historisches Lied, Krieg gegen die Tuerken (1789)
M: 3/4
L: 1/8
K: G
DD | G2BBAA | G2
G2GA | B2d2cA | B4
dB | A3GAA | Bcd2
dB | A3GAA | Bcd2
DD | G2B2AA | B4
dc | B2d2AA | G4

@@@ Tune index: 4059
